**kern
*clefF4
*k[]
*M4/4
=1
*^
[1CC 1E 1G	2c
.	4B-X
.	4d
=2	=2
[1F 1A 1c	2CC]
.	4EE-X
.	4GG
=3	=3
1F] [1B-X 1d	2FF
.	4AA-X
.	4C-X
=4	=4
[1BB-X 1c	2G-X 2B-]
.	4c
.	4A-X
=5	=5
1BB-] 1B-X 1d-X	2F
.	4Gn
.	4En
=6	=6
[1FF 1An 1c	2F
.	4E-X
.	4G-X
!!linebreak:original
=7	=7
1FF_ 1B-X 1d-X	2F
.	4Gn
.	4E-X
=8	=8
1F 1A-X [1c	2FF]
.	4D
.	4BB-X
=9	=9
(1E-X 1G 1c]	2C
.	4FF#X
.	4AAn
*v	*v
=10
[2GG) 2D 2G 2Bn
2GG] 2F 2B 2fn
=11
1C 1En 1c 1g
!!linebreak:original
=12
*^
1AA 1C [1e	2EE
.	4FF#X
.	4DD
=13	=13
1EE 1GG [1BB	2e]
.	4c#X
.	4A
=14	=14
1DD [1FF#X 1BB]	2B
.	4G#X
.	4E#X
=15	=15
1FF#] 1AA#X [1F#X	2CC#X
.	4EE
.	4GG#X
=16	=16
1DD#X 1FF#X 1F#]	2BB
.	4AAn
.	4Cn
=17	=17
1EE 1GGn [1B	2BB
.	4C#X
.	4AA#X
=18	=18
1DD#X 1FF#X 1B_	2BB
.	4AAn
.	4C#X
!!linebreak:original
=19	=19
[1EE 1GG#X 1BB	2B]
.	4D
.	4F#X
=20	=20
(1EE] 1AA 1C#X	2E
.	4B-X
.	4Gn
=21	=21
2AA) 2D [2A	2FF
2BB 2A]	2GGGn 2FF
*v	*v
=22
1AAA 1EE 1Cn 1E
==
*-
!!!system-decoration: [(s1
